priv/static/svgs/icons_new/sport-wrestling.svg

<svg width="32" height="32" viewBox="0 0 32 32" fill="none" xmlns="http://www.w3.org/2000/svg">
<path d="M16 5C21.3369 5 25.5 7.35554 25.5 12.1961C25.5 18.3322 24.8413 27 15.9683 27C7.09533 27 6.5 18.3987 6.5 12.1967C6.5 7.35554 10.6631 5 16 5ZM21.7589 8.32881C21.265 9.43449 20.4978 10.4504 19.472 11.1944C19.4487 11.2112 19.4241 11.2209 19.3945 11.2248C18.5455 11.3313 17.7346 11.6665 17.1132 12.2116C17.0899 12.2316 17.0653 12.2439 17.0343 12.2491C16.694 12.3111 16.3473 12.3427 16.0007 12.3427C15.6541 12.3427 15.3081 12.3111 14.9679 12.2491C14.9369 12.2432 14.9115 12.2316 14.8882 12.2116C14.2661 11.6672 13.4545 11.3313 12.6055 11.2248C12.5759 11.2209 12.5513 11.2112 12.528 11.1944C11.5022 10.4504 10.735 9.43384 10.2411 8.32881C9.39072 9.46549 8.9377 10.8146 8.9377 12.1967V12.3143C8.9377 12.3517 8.92432 12.3834 8.89755 12.4112C8.37055 12.9562 8.06408 13.637 8.06408 14.3693C8.06408 16.2823 10.0304 17.5514 11.9975 17.5514C12.1462 17.5514 12.2941 17.5443 12.4421 17.5314C12.5048 17.5256 12.5619 17.552 12.5943 17.6011C12.6267 17.6508 12.626 17.709 12.5914 17.7574C12.2519 18.2327 12.0659 18.7765 12.0659 19.3468C12.0659 19.8854 12.2321 20.4028 12.5386 20.8607C12.5619 20.8955 12.5682 20.933 12.5576 20.973C12.5471 21.0124 12.5217 21.0434 12.4829 21.0641C11.9073 21.3715 11.2887 21.8772 11.2887 22.5392C11.2887 23.2535 12.0039 23.7844 12.6302 24.0899C13.6271 24.5762 14.8791 24.7686 15.9986 24.7686C17.1181 24.7686 18.3701 24.5762 19.367 24.0899C19.9933 23.7844 20.7084 23.2528 20.7084 22.5392C20.7084 21.8772 20.0898 21.3715 19.5142 21.0641C19.4755 21.0434 19.4508 21.0131 19.4396 20.973C19.429 20.9336 19.4353 20.8955 19.4586 20.8607C19.7658 20.4028 19.9313 19.8854 19.9313 19.3468C19.9313 18.7772 19.7453 18.2327 19.4057 17.7574C19.3712 17.709 19.3698 17.6508 19.4029 17.6011C19.4353 17.552 19.4931 17.5256 19.5558 17.5314C19.7038 17.5449 19.8517 17.5514 20.0004 17.5514C21.9674 17.5514 23.9338 16.2823 23.9338 14.3693C23.9338 13.637 23.6273 12.9562 23.1003 12.4112C23.0736 12.3834 23.0602 12.3511 23.0602 12.3143V12.1974C23.0602 10.8159 22.6072 9.46614 21.7568 8.32946L21.7589 8.32881ZM16 22.0258C16.4227 22.0258 18.8012 22.0645 18.8012 22.6936C18.8012 23.3226 16.4227 23.3613 16 23.3613C15.5773 23.3613 13.1988 23.3226 13.1988 22.6936C13.1988 22.0645 15.5773 22.0258 16 22.0258ZM12.2941 13.0357C12.8697 13.0357 13.4897 13.1377 14.004 13.3825C14.3979 13.5698 14.7882 13.8759 14.8643 14.2983C14.8727 14.3448 14.877 14.3926 14.877 14.4397C14.877 14.4869 14.8727 14.5347 14.8643 14.5812C14.7889 15.0036 14.3979 15.3097 14.004 15.497C13.4897 15.7417 12.8697 15.8438 12.2941 15.8438C11.7185 15.8438 11.0985 15.7417 10.5842 15.497C10.1904 15.3097 9.79935 15.0036 9.72397 14.5812C9.71551 14.5347 9.71129 14.4869 9.71129 14.4397C9.71129 14.3926 9.71551 14.3448 9.72397 14.2983C9.79935 13.8759 10.1904 13.5698 10.5842 13.3825C11.0985 13.1377 11.7185 13.0357 12.2941 13.0357ZM19.7052 13.0357C20.2808 13.0357 20.9008 13.1377 21.4151 13.3825C21.8089 13.5698 22.1992 13.8759 22.2753 14.2983C22.2838 14.3448 22.288 14.3926 22.288 14.4397C22.288 14.4869 22.2838 14.5347 22.2753 14.5812C22.1999 15.0036 21.8089 15.3097 21.4151 15.497C20.9008 15.7417 20.2808 15.8438 19.7052 15.8438C19.1296 15.8438 18.5096 15.7417 17.9953 15.497C17.6014 15.3097 17.2104 15.0036 17.135 14.5812C17.1266 14.5347 17.1223 14.4869 17.1223 14.4397C17.1223 14.3926 17.1266 14.3448 17.135 14.2983C17.2104 13.8759 17.6014 13.5698 17.9953 13.3825C18.5096 13.1377 19.1296 13.0357 19.7052 13.0357ZM14.2901 18.8586L15.3645 17.4823C15.5146 17.2898 15.7407 17.1833 15.9993 17.1833C16.2579 17.1833 16.484 17.2898 16.6341 17.4823L17.7085 18.8586C17.8818 19.0807 17.9044 19.3597 17.7684 19.6026C17.6317 19.846 17.3724 19.9907 17.0744 19.9907H14.9249C14.6269 19.9907 14.3669 19.8454 14.2309 19.6026C14.0942 19.3597 14.1168 19.0807 14.2901 18.8586Z" stroke="black" stroke-linecap="round" stroke-linejoin="round"/>
</svg>

<svg width="32" height="32" viewBox="0 0 32 32" fill="none" xmlns="http://www.w3.org/2000/svg">
  <symbol id="item" viewBox="0 0 32 32" stroke-width="1" fill="none">
    <path d="M16 5c5.337 0 9.5 2.356 9.5 7.196C25.5 18.332 24.841 27 15.968 27S6.5 18.399 6.5 12.197C6.5 7.356 10.663 5 16 5Zm5.759 3.329c-.494 1.105-1.261 2.121-2.287 2.865a.164.164 0 0 1-.078.03c-.848.107-1.66.442-2.28.988a.156.156 0 0 1-.08.037 5.773 5.773 0 0 1-2.066 0 .164.164 0 0 1-.08-.037c-.622-.545-1.434-.88-2.283-.987a.164.164 0 0 1-.077-.03c-1.026-.745-1.793-1.761-2.287-2.866a6.446 6.446 0 0 0-1.303 3.868v.117c0 .038-.014.07-.04.097-.527.545-.834 1.226-.834 1.958 0 1.913 1.966 3.182 3.934 3.182.148 0 .296-.007.444-.02.063-.005.12.021.152.07a.134.134 0 0 1-.003.156 2.718 2.718 0 0 0-.525 1.59c0 .538.166 1.056.473 1.514.023.034.03.072.019.112a.143.143 0 0 1-.075.091c-.576.308-1.194.813-1.194 1.475 0 .714.715 1.245 1.341 1.55.997.487 2.25.68 3.369.68 1.12 0 2.371-.193 3.368-.68.626-.305 1.341-.836 1.341-1.55 0-.662-.618-1.168-1.194-1.475a.144.144 0 0 1-.074-.091.133.133 0 0 1 .019-.112c.307-.458.472-.976.472-1.514a2.72 2.72 0 0 0-.525-1.59.133.133 0 0 1-.003-.156.162.162 0 0 1 .153-.07c.148.014.296.02.444.02 1.967 0 3.934-1.269 3.934-3.182 0-.732-.307-1.413-.834-1.958a.136.136 0 0 1-.04-.097v-.117a6.447 6.447 0 0 0-1.303-3.868h.002ZM16 22.026c.423 0 2.801.038 2.801.668 0 .629-2.378.667-2.801.667-.423 0-2.801-.038-2.801-.667 0-.63 2.378-.668 2.801-.668Zm-3.706-8.99c.576 0 1.196.102 1.71.347.394.187.784.493.86.915a.8.8 0 0 1 0 .283c-.075.423-.466.729-.86.916-.514.245-1.134.347-1.71.347-.575 0-1.196-.102-1.71-.347-.394-.187-.785-.493-.86-.916a.794.794 0 0 1 0-.283c.075-.422.466-.728.86-.915.514-.245 1.135-.347 1.71-.347Zm7.411 0c.576 0 1.196.102 1.71.347.394.187.784.493.86.915a.79.79 0 0 1 0 .283c-.075.423-.466.729-.86.916-.514.245-1.134.347-1.71.347-.575 0-1.195-.102-1.71-.347-.394-.187-.785-.493-.86-.916a.8.8 0 0 1 0-.283c.075-.422.466-.728.86-.915.515-.245 1.135-.347 1.71-.347Zm-5.415 5.823 1.075-1.377a.786.786 0 0 1 .634-.299c.259 0 .485.107.635.3l1.075 1.376a.657.657 0 0 1 .06.744.778.778 0 0 1-.695.388h-2.15a.779.779 0 0 1-.693-.388.656.656 0 0 1 .06-.744Z" stroke="#1C1B17" stroke-linecap="round" stroke-linejoin="round"/>
  </symbol>
</svg>
